X:8935
T:La Gallegada (XA 32)
R:Gallegada
C:Tradicional
S:Música Tradicional Asturiana, (C) Tello & Tito. Asturies, 2001.
S:http://pagina.de/MusTradAst <telloytito@asturies.org>
A:Asturies
Z:Métodu de Xuacu Amieva 32
M:2/4
L:1/8
Q:1/4=116
K:C
|: c3 d|~ed cB|A>B ~AG|F4|
|c3 ~d|cB AB|G>A ~GF|[1 E4 :|
[M:6/8]
[Q:3/8=116]
[2 E3 E2 F|
|: GAG FEF|~G2 E E2 F|GAG FEF|F3 D2 E|
|FGF ~EDE|F2 D D2 E|[1 FGF ~EDF|E3 E2 F :|[2 FA~G F~ED|E3 E2 D|
|: EF~E DCD|~E2 C C2 D|EF~E DCE|D3 B,2 C|
|DED ~CB,C|~D2 B, B,2 C|[1 DED ~CB,D|C3 C2 D :|[2 DED CB,D|C6|


